packages/core/src/svgs/tokens/branded/MOON.svg

<svg width="24" height="24" viewBox="0 0 24 24" fill="none" xmlns="http://www.w3.org/2000/svg">
<path d="M9.3811 3.02338C9.4128 2.80708 9.51451 2.60715 9.6707 2.45416C9.8269 2.30118 10.0288 2.20359 10.2458 2.17632C10.6576 2.07044 11.9104 1.89986 13.5575 2.07633C13.8752 2.11751 14.4633 2.35868 14.534 2.99397C15.581 3.28808 16.5517 3.75867 17.4164 4.37044C17.7105 4.19395 18.2634 4.05279 18.8164 4.60572C19.1928 4.93513 20.1927 5.99983 21.1869 7.641C21.3928 7.99394 21.6163 8.79982 20.9516 9.2351C21.2954 10.3498 21.4272 11.5189 21.3398 12.6821C21.6634 12.8409 22.0752 13.194 21.9869 13.7704C21.9633 14.1704 21.734 15.2998 21.034 16.6469C20.8927 16.8998 20.4693 17.2939 19.8163 17.1469C19.3898 17.7885 18.8861 18.3753 18.3163 18.8938C18.4574 19.2233 18.5222 19.8468 17.9105 20.2645C16.9415 20.9572 15.8695 21.4932 14.734 21.8526C14.381 21.9527 13.6281 21.9704 13.2928 21.2468C12.714 21.3261 12.1292 21.3518 11.5457 21.3232C11.2516 22.0409 10.4517 22.0527 10.0634 21.9586C8.80235 21.6393 7.59387 21.1401 6.47521 20.4762C6.22388 20.3546 6.0265 20.1444 5.92113 19.8858C5.81576 19.6272 5.80987 19.3388 5.90462 19.0763C5.35169 18.5939 4.8458 18.0527 4.4164 17.4586C3.66934 17.6645 3.17522 17.035 3.01641 16.6703C2.50423 15.4761 2.16742 14.214 2.01641 12.9233C1.91641 12.1998 2.32228 11.8233 2.65758 11.6704C2.69287 10.6527 2.89288 9.67627 3.22229 8.76452C2.71052 8.32335 2.88111 7.65865 3.04582 7.35865C3.62003 6.34598 4.34389 5.4258 5.19286 4.62926C5.67521 4.15867 6.19285 4.27631 6.48697 4.45279C7.36129 3.81178 8.34064 3.32807 9.3811 3.02338Z" fill="black"/>
<path d="M13.4694 3.13524C12.4525 2.94502 11.4076 2.96503 10.3988 3.19405L10.187 4.08817L13.8223 4.01758L13.4694 3.13524ZM17.9281 5.2764L17.1753 5.59404L19.7282 9.2705L20.234 8.33521C19.7043 7.15573 18.9162 6.11037 17.9281 5.2764ZM20.1164 16.0352L19.1517 16.1999L20.1164 12.947L20.8811 13.6234C20.7345 14.4577 20.4773 15.2688 20.1164 16.0352ZM14.2929 20.7821L13.487 20.1351L17.2693 18.1823V19.3587C16.3774 20.0191 15.3669 20.5024 14.2929 20.7821ZM10.4988 20.9057L11.1752 20.1999L6.89291 18.2822V19.4176C7.97059 20.1731 9.20188 20.6813 10.4988 20.9057ZM4.15175 16.3528H5.07528L3.94587 12.0116L3.05176 12.6351C3.24588 14.6469 3.86941 15.9528 4.15175 16.3528ZM3.94587 7.9705L4.46351 8.84108L7.01644 5.72346L5.96351 5.38816C5.12144 6.10191 4.43474 6.9808 3.94587 7.9705Z" fill="#D9B86C"/>
<path d="M11.9988 20.2822C16.599 20.2822 20.3282 16.5582 20.3282 11.9646C20.3282 7.37084 16.599 3.64691 11.9988 3.64691C7.39861 3.64691 3.66943 7.37084 3.66943 11.9646C3.66943 16.5582 7.39861 20.2822 11.9988 20.2822Z" fill="#EFDA8D"/>
<path d="M11.9991 18.8527C12.8991 18.8527 13.758 18.6763 14.5461 18.3704C15.4285 18.594 16.6638 18.1822 17.6697 17.2409C18.9462 16.041 19.3932 14.4293 18.7167 13.5587C19.0338 12.2309 18.9499 10.8388 18.4755 9.55867C18.6109 8.69984 18.2226 7.58221 17.3756 6.65279C16.3521 5.5234 14.9933 5.03516 14.0815 5.38222C13.0474 5.05652 11.9513 4.97862 10.8816 5.15484C9.8118 5.33105 8.79859 5.75643 7.92365 6.3966C7.04871 7.03676 6.33663 7.87377 5.84496 8.83998C5.35328 9.80614 5.09577 10.8745 5.09326 11.9587C5.09326 13.6528 5.70503 15.2057 6.72267 16.4057C6.81634 16.8633 7.00849 17.295 7.28581 17.6708C7.56312 18.0467 7.91894 18.3576 8.32855 18.5822C9.38741 19.2174 10.5815 19.2822 11.3403 18.8174C11.5579 18.841 11.7756 18.8527 11.9991 18.8527Z" fill="#F4EEBE"/>
<path d="M17.8075 9.57309C18.3095 9.09681 17.9278 7.87966 16.9551 6.85458C15.9822 5.82949 14.7867 5.38462 14.2848 5.86094C13.7828 6.33727 14.1646 7.55441 15.1373 8.57949C16.1101 9.60466 17.3056 10.0495 17.8075 9.57309Z" fill="#C29E58"/>
<path d="M14.0813 6.65873C14.6753 6.5999 15.5577 7.04697 16.3165 7.83519C16.8518 8.35533 17.2203 9.02279 17.3754 9.75279C16.7753 9.81167 15.8931 9.36464 15.1401 8.57636C14.6049 8.05624 14.2363 7.38875 14.0813 6.65873Z" fill="#A07E41"/>
<path d="M7.43409 16.462C7.18822 16.9561 7.80576 17.7617 8.8134 18.2613C9.82105 18.7609 10.8373 18.7653 11.0831 18.271C11.3289 17.7769 10.7114 16.9712 9.70384 16.4718C8.69616 15.9722 7.67997 15.9678 7.43409 16.462Z" fill="#C29E58"/>
<path d="M11.0222 17.6115C10.5927 17.8174 9.81037 17.7292 9.03395 17.3409C8.49129 17.0997 8.03262 16.7024 7.71631 16.1998C8.14572 15.9939 8.92807 16.0822 9.70454 16.4703C10.247 16.7119 10.7055 17.1091 11.0222 17.6115Z" fill="#A07E41"/>
<path d="M13.8166 17.4541C14.5385 18.2596 16.1235 18.0197 17.3568 16.918C18.59 15.8162 19.0045 14.2701 18.2825 13.4644C17.5606 12.6588 15.9756 12.8988 14.7424 14.0005C13.5091 15.1022 13.0946 16.6484 13.8166 17.4541Z" fill="#C29E58"/>
<path d="M17.4695 13.0174C17.4695 13.7115 16.8813 14.7233 15.9048 15.588C15.0813 16.3233 14.1931 16.7762 13.5166 16.8527C13.2342 16.1115 13.7224 14.9292 14.7518 14.0174C15.6636 13.1939 16.746 12.8233 17.4695 13.0174Z" fill="#A07E41"/>
<path d="M9.28722 13.7293C11.0675 13.7293 12.5108 12.2281 12.5108 10.3763C12.5108 8.52454 11.0675 7.02338 9.28722 7.02338C7.50693 7.02338 6.06372 8.52454 6.06372 10.3763C6.06372 12.2281 7.50693 13.7293 9.28722 13.7293Z" fill="#C29E58"/>
<path d="M9.29269 13.7294C10.1633 13.7092 10.9905 13.3452 11.5935 12.717C12.1964 12.0886 12.5261 11.2471 12.5103 10.3764C12.5103 9.7881 12.3632 9.22934 12.1045 8.7411C11.858 8.68118 11.6051 8.65154 11.3515 8.65287C10.4798 8.6714 9.65106 9.03473 9.04688 9.6632C8.44266 10.2917 8.11222 11.1342 8.12798 12.0059C8.12798 12.594 8.27505 13.1529 8.53974 13.6411C8.77504 13.6998 9.02798 13.7294 9.28679 13.7294H9.29269Z" fill="#A07E41"/>
</svg>

<svg xmlns="http://www.w3.org/2000/svg" width="24" height="24" fill="none" viewBox="0 0 24 24">
    <path fill="#000" d="M9.381 3.023a1 1 0 0 1 .865-.847c.412-.106 1.664-.276 3.311-.1.318.042.906.283.977.918a9.4 9.4 0 0 1 2.882 1.376c.294-.176.847-.317 1.4.236.377.33 1.377 1.394 2.37 3.035.207.353.43 1.159-.234 1.594a9.3 9.3 0 0 1 .388 3.447c.323.159.735.512.647 1.088-.024.4-.253 1.53-.953 2.877a1.1 1.1 0 0 1-1.218.5 9.4 9.4 0 0 1-1.5 1.747c.141.33.206.953-.405 1.37a11.4 11.4 0 0 1-3.177 1.589c-.353.1-1.106.117-1.441-.606a9.5 9.5 0 0 1-1.747.076c-.294.718-1.094.73-1.483.636a13.6 13.6 0 0 1-3.588-1.483 1.13 1.13 0 0 1-.57-1.4 9.7 9.7 0 0 1-1.489-1.617c-.747.206-1.24-.424-1.4-.789a13.5 13.5 0 0 1-1-3.747c-.1-.723.306-1.1.642-1.253a9.5 9.5 0 0 1 .564-2.905c-.511-.442-.34-1.106-.176-1.406a11.6 11.6 0 0 1 2.147-2.73c.482-.47 1-.353 1.294-.176a9.3 9.3 0 0 1 2.894-1.43"/>
    <path fill="#D9B86C" d="M13.47 3.135a7.6 7.6 0 0 0-3.071.06l-.212.893 3.635-.07zm4.458 2.141-.753.318 2.553 3.677.506-.936a8.6 8.6 0 0 0-2.306-3.059m2.188 10.76-.964.164.964-3.253.765.676a9.5 9.5 0 0 1-.765 2.412m-5.823 4.746-.806-.647 3.782-1.953v1.177a8.7 8.7 0 0 1-2.976 1.423m-3.794.124.676-.706-4.282-1.918v1.136a8.9 8.9 0 0 0 3.606 1.488m-6.347-4.553h.923l-1.13-4.341-.893.623c.194 2.012.817 3.318 1.1 3.718M3.946 7.97l.518.87 2.552-3.118-1.052-.335A8.1 8.1 0 0 0 3.946 7.97"/>
    <path fill="#EFDA8D" d="M11.999 20.282c4.6 0 8.33-3.724 8.33-8.317 0-4.594-3.73-8.318-8.33-8.318s-8.33 3.724-8.33 8.318S7.4 20.282 12 20.282"/>
    <path fill="#F4EEBE" d="M12 18.853c.9 0 1.758-.177 2.546-.483.883.224 2.118-.188 3.124-1.13 1.276-1.199 1.723-2.81 1.047-3.681a6.9 6.9 0 0 0-.241-4c.135-.86-.253-1.977-1.1-2.906-1.024-1.13-2.383-1.618-3.295-1.27a6.912 6.912 0 0 0-8.988 6.576 6.85 6.85 0 0 0 1.63 4.447 3.22 3.22 0 0 0 1.606 2.176c1.058.635 2.252.7 3.011.235q.325.036.66.036"/>
    <path fill="#C29E58" d="M17.808 9.573c.502-.476.12-1.693-.853-2.718-.973-1.026-2.168-1.47-2.67-.994s-.12 1.693.852 2.718c.973 1.026 2.169 1.47 2.67.994"/>
    <path fill="#A07E41" d="M14.081 6.659c.594-.06 1.477.388 2.236 1.176.535.52.903 1.188 1.058 1.918-.6.059-1.482-.388-2.235-1.177a3.76 3.76 0 0 1-1.059-1.917"/>
    <path fill="#C29E58" d="M7.434 16.462c-.246.494.372 1.3 1.38 1.8 1.007.499 2.023.503 2.27.009.245-.494-.373-1.3-1.38-1.8-1.008-.499-2.024-.503-2.27-.009"/>
    <path fill="#A07E41" d="M11.022 17.612c-.43.205-1.212.117-1.988-.271A3 3 0 0 1 7.716 16.2c.43-.206 1.212-.118 1.989.27a3 3 0 0 1 1.317 1.142"/>
    <path fill="#C29E58" d="M13.817 17.454c.722.806 2.307.566 3.54-.536s1.648-2.648.925-3.454c-.721-.805-2.306-.565-3.54.537s-1.647 2.647-.925 3.453"/>
    <path fill="#A07E41" d="M17.47 13.017c0 .694-.589 1.706-1.565 2.571-.824.735-1.712 1.188-2.388 1.265-.283-.742.205-1.924 1.235-2.836.912-.823 1.994-1.194 2.717-1"/>
    <path fill="#C29E58" d="M9.287 13.73c1.78 0 3.224-1.502 3.224-3.354 0-1.851-1.443-3.353-3.224-3.353-1.78 0-3.223 1.502-3.223 3.353s1.443 3.353 3.223 3.353"/>
    <path fill="#A07E41" d="M9.293 13.73a3.295 3.295 0 0 0 3.217-3.354 3.5 3.5 0 0 0-.405-1.635q-.372-.09-.754-.088a3.294 3.294 0 0 0-3.223 3.353c0 .588.147 1.147.412 1.635a3 3 0 0 0 .747.088z"/>
</svg>
